src/icons/chest.svg

<svg width="24" height="24" viewBox="0 0 24 24" fill="none" xmlns="http://www.w3.org/2000/svg">
<path fill-rule="evenodd" clip-rule="evenodd" d="M1 7C1 4.79086 2.79086 3 5 3H19C21.2091 3 23 4.79086 23 7V21H1V7ZM5 5H19C20.1046 5 21 5.89543 21 7V9H15V7H9V9H3V7C3 5.89543 3.89543 5 5 5ZM9 11H3V19H21V11H15V12C15 13.6569 13.6569 15 12 15C10.3431 15 9 13.6569 9 12V11ZM13 9H11V12C11 12.5523 11.4477 13 12 13C12.5523 13 13 12.5523 13 12V9Z" fill="black"/>
</svg>

<svg xmlns="http://www.w3.org/2000/svg" width="24" height="24" fill="none"><path fill="currentColor" fill-rule="evenodd" d="M1 7a4 4 0 0 1 4-4h14a4 4 0 0 1 4 4v14H1zm4-2h14a2 2 0 0 1 2 2v2h-6V7H9v2H3V7a2 2 0 0 1 2-2m4 6H3v8h18v-8h-6v1a3 3 0 1 1-6 0zm4-2h-2v3a1 1 0 1 0 2 0z" clip-rule="evenodd"/></svg>
